svg/N_Arrows/30.svg

<?xml version="1.0" encoding="UTF-8" standalone="no"?>
<!-- Created with Inkscape (http://www.inkscape.org/) -->
<svg
   xmlns:dc="http://purl.org/dc/elements/1.1/"
   xmlns:cc="http://web.resource.org/cc/"
   xmlns:rdf="http://www.w3.org/1999/02/22-rdf-syntax-ns#"
   xmlns:svg="http://www.w3.org/2000/svg"
   xmlns="http://www.w3.org/2000/svg"
   xmlns:sodipodi="http://sodipodi.sourceforge.net/DTD/sodipodi-0.dtd"
   xmlns:inkscape="http://www.inkscape.org/namespaces/inkscape"
   width="744.09448819"
   height="1052.3622047"
   id="svg2"
   sodipodi:version="0.32"
   inkscape:version="0.44.1"
   sodipodi:docbase="F:\QGIS_N_ARROWS\TOT"
   sodipodi:docname="FINALE.svg"
   inkscape:export-filename="F:\QGIS_N_ARROWS\TOT\FINALE.png"
   inkscape:export-xdpi="300"
   inkscape:export-ydpi="300">
  <defs
     id="defs4" />
  <sodipodi:namedview
     id="base"
     pagecolor="#ffffff"
     bordercolor="#666666"
     borderopacity="1.0"
     inkscape:pageopacity="0.0"
     inkscape:pageshadow="2"
     inkscape:zoom="0.70710678"
     inkscape:cx="375"
     inkscape:cy="507.03446"
     inkscape:document-units="px"
     inkscape:current-layer="layer1"
     showgrid="true"
     inkscape:window-width="1280"
     inkscape:window-height="744"
     inkscape:window-x="-4"
     inkscape:window-y="-4" />
  <metadata
     id="metadata7">
    <rdf:RDF>
      <cc:Work
         rdf:about="">
        <dc:format>image/svg+xml</dc:format>
        <dc:type
           rdf:resource="http://purl.org/dc/dcmitype/StillImage" />
      </cc:Work>
    </rdf:RDF>
  </metadata>
  <g
     inkscape:label="Livello 1"
     inkscape:groupmode="layer"
     id="layer1">
    <g
       id="g4883">
      <flowRoot
         transform="translate(50.94362,379.5125)"
         style="font-size:56px;font-family:Arial Black"
         id="flowRoot2047"
         xml:space="preserve"><flowRegion
           id="flowRegion2049"><rect
             style="font-size:56px;font-family:Arial Black"
             y="270.93362"
             x="321.42856"
             height="74.285713"
             width="68.571426"
             id="rect2051" /></flowRegion><flowPara
           id="flowPara2053">S</flowPara></flowRoot>      <flowRoot
         transform="translate(227.4542,205.0977)"
         style="font-size:56px;font-family:Arial Black"
         id="flowRoot2055"
         xml:space="preserve"><flowRegion
           id="flowRegion2057"><rect
             style="font-size:56px;font-family:Arial Black"
             y="270.93362"
             x="321.42856"
             height="74.285713"
             width="68.571426"
             id="rect2059" /></flowRegion><flowPara
           id="flowPara2061">E</flowPara></flowRoot>      <flowRoot
         transform="translate(47.70264,37.89736)"
         style="font-size:56px;font-family:Arial Black"
         id="flowRoot2063"
         xml:space="preserve"><flowRegion
           id="flowRegion2065"><rect
             style="font-size:56px;font-family:Arial Black"
             y="270.93362"
             x="321.42856"
             height="74.285713"
             width="68.571426"
             id="rect2067" /></flowRegion><flowPara
           id="flowPara2069">N</flowPara></flowRoot>      <flowRoot
         transform="translate(-144.9536,207.2764)"
         style="font-size:56px;font-family:Arial Black"
         id="flowRoot2071"
         xml:space="preserve"><flowRegion
           id="flowRegion2073"><rect
             style="font-size:56px;font-family:Arial Black"
             y="270.93362"
             x="321.42856"
             height="74.285713"
             width="68.571426"
             id="rect2075" /></flowRegion><flowPara
           id="flowPara2077">W</flowPara></flowRoot>      <g
         transform="matrix(1.266604,0,0,1.156406,-28.30399,-130.7979)"
         id="g4734">
        <g
           id="g3828">
          <path
             d="M 405.07117 505.36459 A 28.284271 39.901024 0 1 1  348.50262,505.36459 A 28.284271 39.901024 0 1 1  405.07117 505.36459 z"
             sodipodi:ry="39.901024"
             sodipodi:rx="28.284271"
             sodipodi:cy="505.36459"
             sodipodi:cx="376.7869"
             id="path2034"
             style="opacity:0.97000002;fill:none;fill-opacity:1;stroke:none;stroke-width:10.64999962;stroke-linecap:square;stroke-linejoin:miter;stroke-miterlimit:4;stroke-dasharray:none;stroke-opacity:1"
             sodipodi:type="arc" />
          <path
             d="M 391.93919 594.76306 A 43.941635 87.88327 0 1 1  304.05592,594.76306 A 43.941635 87.88327 0 1 1  391.93919 594.76306 z"
             sodipodi:ry="87.88327"
             sodipodi:rx="43.941635"
             sodipodi:cy="594.76306"
             sodipodi:cx="347.99756"
             id="path2036"
             style="opacity:0.97000002;fill:none;fill-opacity:1;stroke:none;stroke-width:10.64999962;stroke-linecap:square;stroke-linejoin:miter;stroke-miterlimit:4;stroke-dasharray:none;stroke-opacity:1"
             sodipodi:type="arc" />
          <path
             transform="matrix(0.471179,0,0,0.592392,190.4158,324.1156)"
             d="M 331.33003 377.58029 A 33.335033 33.335033 0 1 1  264.65996,377.58029 A 33.335033 33.335033 0 1 1  331.33003 377.58029 z"
             sodipodi:ry="33.335033"
             sodipodi:rx="33.335033"
             sodipodi:cy="377.58029"
             sodipodi:cx="297.995"
             id="path2038"
             style="opacity:0.97000002;fill:none;fill-opacity:1;stroke:black;stroke-width:31.93136787;stroke-linecap:square;stroke-linejoin:miter;stroke-miterlimit:4;stroke-dasharray:none;stroke-opacity:1"
             sodipodi:type="arc" />
          <path
             sodipodi:nodetypes="cccc"
             id="path2040"
             d="M 308.55142,531.85967 C 322.31437,522.41867 336.43486,515.4482 353.93909,531.85967 L 331.13438,420.43149 L 308.55142,531.85967 z "
             style="fill:black;fill-opacity:1;fill-rule:evenodd;stroke:none;stroke-width:4.27360439px;stroke-linecap:butt;stroke-linejoin:miter;stroke-opacity:1" />
          <path
             sodipodi:nodetypes="cccc"
             id="path3820"
             d="M 354.02387,564.30279 C 340.26092,573.7438 326.14043,580.71427 308.6362,564.30279 L 331.44091,675.73097 L 354.02387,564.30279 z "
             style="fill:black;fill-opacity:1;fill-rule:evenodd;stroke:none;stroke-width:4.27360439px;stroke-linecap:butt;stroke-linejoin:miter;stroke-opacity:1" />
          <path
             sodipodi:nodetypes="cccc"
             id="path3822"
             d="M 343.80124,525.60223 C 353.24224,539.36518 360.21271,553.48567 343.80124,570.9899 L 455.22942,548.18519 L 343.80124,525.60223 z "
             style="fill:black;fill-opacity:1;fill-rule:evenodd;stroke:none;stroke-width:4.27360439px;stroke-linecap:butt;stroke-linejoin:miter;stroke-opacity:1" />
          <path
             sodipodi:nodetypes="cccc"
             id="path3824"
             d="M 317.34358,570.9899 C 307.90256,557.22696 300.9321,543.10647 317.34358,525.60224 L 205.9154,548.40695 L 317.34358,570.9899 z "
             style="fill:black;fill-opacity:1;fill-rule:evenodd;stroke:none;stroke-width:4.27360439px;stroke-linecap:butt;stroke-linejoin:miter;stroke-opacity:1" />
        </g>
        <path
           sodipodi:type="arc"
           style="opacity:0.97000002;fill:none;fill-opacity:1;stroke:black;stroke-width:2.56999993;stroke-linecap:square;stroke-linejoin:miter;stroke-miterlimit:4;stroke-dasharray:none;stroke-opacity:1"
           id="path3837"
           sodipodi:cx="540.93671"
           sodipodi:cy="485.6666"
           sodipodi:rx="69.19545"
           sodipodi:ry="73.741135"
           d="M 610.13216 485.6666 A 69.19545 73.741135 0 1 1  471.74126,485.6666 A 69.19545 73.741135 0 1 1  610.13216 485.6666 z"
           transform="translate(-209.1016,61.66945)" />
        <path
           sodipodi:type="arc"
           style="opacity:0.97000002;fill:none;fill-opacity:1;stroke:black;stroke-width:2.56999993;stroke-linecap:square;stroke-linejoin:miter;stroke-miterlimit:4;stroke-dasharray:none;stroke-opacity:1"
           id="path4724"
           sodipodi:cx="540.93671"
           sodipodi:cy="485.6666"
           sodipodi:rx="69.19545"
           sodipodi:ry="73.741135"
           d="M 610.13216 485.6666 A 69.19545 73.741135 0 1 1  471.74126,485.6666 A 69.19545 73.741135 0 1 1  610.13216 485.6666 z"
           transform="matrix(1.172345,0,0,1.133665,-302.6838,-3.141892)" />
        <path
           sodipodi:type="arc"
           style="opacity:0.97000002;fill:black;fill-opacity:1;stroke:black;stroke-width:2.56999993;stroke-linecap:square;stroke-linejoin:miter;stroke-miterlimit:4;stroke-dasharray:none;stroke-opacity:1"
           id="path4726"
           sodipodi:cx="448.03571"
           sodipodi:cy="472.18362"
           sodipodi:rx="2.3214285"
           sodipodi:ry="2.3214285"
           d="M 450.35713 472.18362 A 2.3214285 2.3214285 0 1 1  445.71428,472.18362 A 2.3214285 2.3214285 0 1 1  450.35713 472.18362 z"
           transform="matrix(0.449919,-0.449918,1.088359,1.088359,-440.4914,182.7925)" />
        <path
           sodipodi:type="arc"
           style="opacity:0.97000002;fill:black;fill-opacity:1;stroke:black;stroke-width:2.56999993;stroke-linecap:square;stroke-linejoin:miter;stroke-miterlimit:4;stroke-dasharray:none;stroke-opacity:1"
           id="path4728"
           sodipodi:cx="448.03571"
           sodipodi:cy="472.18362"
           sodipodi:rx="2.3214285"
           sodipodi:ry="2.3214285"
           d="M 450.35713 472.18362 A 2.3214285 2.3214285 0 1 1  445.71428,472.18362 A 2.3214285 2.3214285 0 1 1  450.35713 472.18362 z"
           transform="matrix(0.449919,-0.449918,1.088359,1.088359,-333.4851,293.2862)" />
        <path
           sodipodi:type="arc"
           style="opacity:0.97000002;fill:black;fill-opacity:1;stroke:black;stroke-width:2.56999993;stroke-linecap:square;stroke-linejoin:miter;stroke-miterlimit:4;stroke-dasharray:none;stroke-opacity:1"
           id="path4730"
           sodipodi:cx="448.03571"
           sodipodi:cy="472.18362"
           sodipodi:rx="2.3214285"
           sodipodi:ry="2.3214285"
           d="M 450.35713 472.18362 A 2.3214285 2.3214285 0 1 1  445.71428,472.18362 A 2.3214285 2.3214285 0 1 1  450.35713 472.18362 z"
           transform="matrix(0.449918,0.449919,-1.088359,1.088359,592.0759,-111.6229)" />
        <path
           sodipodi:type="arc"
           style="opacity:0.97000002;fill:black;fill-opacity:1;stroke:black;stroke-width:2.56999993;stroke-linecap:square;stroke-linejoin:miter;stroke-miterlimit:4;stroke-dasharray:none;stroke-opacity:1"
           id="path4732"
           sodipodi:cx="448.03571"
           sodipodi:cy="472.18362"
           sodipodi:rx="2.3214285"
           sodipodi:ry="2.3214285"
           d="M 450.35713 472.18362 A 2.3214285 2.3214285 0 1 1  445.71428,472.18362 A 2.3214285 2.3214285 0 1 1  450.35713 472.18362 z"
           transform="matrix(-0.449919,-0.449918,-1.088359,1.088359,1100.485,179.7862)" />
      </g>
    </g>
  </g>
</svg>

<svg xmlns="http://www.w3.org/2000/svg" viewBox="0 0 744.09 1052.36" xmlns:xlink="http://www.w3.org/1999/xlink"><defs><path id="0" d="M450.35713 472.18362A2.321429 2.321429 0 1 1 445.71428 472.18362 2.321429 2.321429 0 1 1 450.35713 472.18362z" stroke="#000" stroke-width="2.57" opacity=".97" stroke-linecap="square"/><path id="1" d="m321.43 270.93h68.57v74.28h-68.57z"/></defs><g font-family="Arial Black" font-size="56"><flowRoot transform="translate(50.944 379.51)"><flowRegion><path d="m321.43 270.93h68.57v74.28h-68.57z"/></flowRegion><flowPara>S</flowPara></flowRoot><flowRoot transform="translate(227.45 205.1)"><flowRegion><use xlink:href="#1"/></flowRegion><flowPara>E</flowPara></flowRoot><flowRoot transform="translate(47.703 37.897)"><flowRegion><use xlink:href="#1"/></flowRegion><flowPara>N</flowPara></flowRoot><flowRoot transform="translate(-144.95 207.28)"><flowRegion><use xlink:href="#1"/></flowRegion><flowPara>W</flowPara></flowRoot></g><g transform="matrix(1.2666 0 0 1.15641-28.3-130.8)"><g><path transform="matrix(.47118 0 0 .59239 190.42 324.12)" d="M331.33003 377.58029A33.33503 33.33503 0 1 1 264.65996 377.58029 33.33503 33.33503 0 1 1 331.33003 377.58029z" opacity=".97" fill="none" stroke="#000" stroke-linecap="square" stroke-width="31.931"/><g fill-rule="evenodd"><path d="m308.55 531.86c13.763-9.441 27.883-16.411 45.39 0l-22.805-111.43-22.583 111.43"/><path d="m354.02 564.3c-13.763 9.441-27.883 16.411-45.39 0l22.805 111.43 22.583-111.43"/><path d="m343.8 525.6c9.441 13.763 16.411 27.883 0 45.39l111.43-22.805-111.43-22.583"/><path d="m317.34 570.99c-9.441-13.763-16.411-27.883 0-45.39l-111.43 22.805 111.43 22.583"/></g></g><path d="M610.13216 485.6666A69.19545 73.74113 0 1 1 471.74126 485.6666 69.19545 73.74113 0 1 1 610.13216 485.6666z" transform="translate(-209.1 61.67)" opacity=".97" fill="none" stroke="#000" stroke-linecap="square" stroke-width="2.57" id="2"/><use transform="matrix(1.17234 0 0 1.13366-57.54-73.05)" xlink:href="#2"/><use transform="matrix(.44992-.44992 1.08836 1.08836-440.49 182.79)" xlink:href="#0"/><use transform="matrix(.44992-.44992 1.08836 1.08836-333.49 293.29)" xlink:href="#0"/><use transform="matrix(.44992.44992-1.08836 1.08836 592.08-111.62)" xlink:href="#0"/><use transform="matrix(-.44992-.44992-1.08836 1.08836 1100.48 179.79)" xlink:href="#0"/></g></svg>
